X:1
T:Title
%%score { ( 1 3 ) | ( 2 4 ) }
L:1/8
Q:1/4=106
M:4/4
K:Bb
V:1 treble nm="Grand Piano"
V:3 treble 
V:2 bass 
V:4 bass 
V:1
 [DF]3 [DB] [Fd]2 [Ec]2 | [DB]2 [DF]2 [B,D] [DF]3 | A3 B c2 A2 | G2 A2 [DB]4 | %4
w: J.~H.~Rosecrans * * *||||
 [DF]3 [DB] [Fd]2 [Ec]2 | [DB]2 [DF]2 [B,D] [DF]3 | A3 B c2 A2 | G2 A2 [DB]4 | [DF]3 [FB] BAGA | %9
w: |||||
 B2- [EB-][EB-] [DB]2 z2 | c3 d cBAB | c6 z2 | [Fd]3 [Ge] [Fd][Ec][DB][FA] | z G3- G z z2 | %14
w: |||||
 F3 B BAGA | B6 z2 |] %16
w: ||
V:2
 [B,,B,]3 [B,,F,] [B,,B,]2 [B,,B,]2 | [B,,B,]2 [B,,B,]2 [B,,F,] [B,,B,]3 | %2
 [F,CE]3 [F,B,D] [F,A,E]2 [F,CE]2 | [F,CE]2 [F,CE]2 [B,,B,]4 | [B,,B,]3 [B,,F,] [B,,B,]2 [B,,B,]2 | %5
 [B,,B,]2 [B,,B,]2 [B,,F,] [B,,B,]3 | [F,CE]3 [F,B,D] [F,A,E]2 [F,CE]2 | [F,CE]2 [F,CE]2 [B,,B,]4 | %8
 [B,,B,]3 [D,B,] [F,CE][F,CE][F,CE][F,CE] | [B,,B,]2 [B,,G,][B,,G,] [B,,F,]2 z2 | %10
 [F,A,F]3 [F,B,F] [F,A,E][F,B,D][F,CE][F,B,D] | [F,A,F]2 [C,G,][C,B,] [F,A,]2 z2 | %12
 [B,,B,]3 [B,,B,] [B,,B,][B,,B,][B,,B,][D,B,] | %13
 [E,B,E][E,B,E][E,B,][E,B,] [E,B,][E,B,][E,B,][E,B,] | [F,B,D]3 [F,B,D] [F,CE][F,CE][F,CE][F,CE] | %15
 z2 G,G, F,2 z2 |] %16
V:3
 x8 | x8 | x8 | x8 | x8 | x8 | x8 | x8 | x8 | D2 z2 z4 | x8 | z2 =EG F2 z2 | x8 | .A2 EE EEEE | %14
 x8 | [B,D]2 EE D2 z2 |] %16
V:4
 x8 | x8 | x8 | x8 | x8 | x8 | x8 | x8 | x8 | x8 | x8 | x8 | x8 | x8 | x8 | B,,6 z2 |] %16

